!!!OTL: WO MUTH UND KRAFT IN DEUTSCHER SEELE FLAMMEN
!!!ARE: Europa, Mitteleuropa, Deutschland
!!!SCT: B0548
!!!YEM: Copyright 1995, estate of Helmut Schaffrath.
**kern
*ICvox
*Ivox
*M4/4
*k[]
*C:
{8G
8.e
16c
=1
4.G
8G
8.G
16G
8.A
16G
=2
8.G
16F
4F
8.r}
{16F
8.G
16F
=3
4.E
8G
8.A
16A
8.d
16c
=4
4c
4B
8.r}
{16G
8.e
16c
=5
4.G
8G
8.G
16G
8.A
16G
=6
8.F#
16A
4d
8.r}
{16d
8.d
16c
=7
4B
8.c
16A
8.G
16G
8.B
16A
=8
2G
4r}
{4G
=9
4.d
8B
8.c
16B
8c
8e
=10
4d
4G
4r}
{4G
=11
4.e
8d
4.c
8e
=12
4d
4G
8r}
{8G
8.A
16B
=13
4.c
8d
8.e
16d
8.c
16B
=14
4A
4f
8r}
{8f
8.e
16d
=15
4.c
8c
8.d
16c
8.d
16e
=16
2c
8r}
==
!!!AGN: Studenten -, Burschenschafts - Lied, national
!!!ONB: ESAC (Essen Associative Code) Database: BOEHME
!!!AMT: simple quadruple
!!!AIN: vox
!!!EED: Helmut Schaffrath
!!!EEV: 1.0
*-
